assets/img/icon-ik.svg

<svg width="655" height="446" viewBox="0 0 655 446" fill="none" xmlns="http://www.w3.org/2000/svg">
<path d="M151.85 446H0.650391L95.1504 1.49996H247.05L151.85 446ZM402.571 194.7L575.471 0.799974H654.571L497.771 170.9L604.171 446H451.571L389.971 250.7L348.671 446H197.471L291.971 1.49996H443.871L402.571 194.7Z" fill="#E63946"/>
</svg>

<?xml version="1.0" encoding="UTF-8"?>
<svg fill="none" viewBox="0 0 655 446" xmlns="http://www.w3.org/2000/svg">
<path d="m151.85 446h-151.2l94.5-444.5h151.9l-95.2 444.5zm250.72-251.3 172.9-193.9h79.1l-156.8 170.1 106.4 275.1h-152.6l-61.6-195.3-41.3 195.3h-151.2l94.5-444.5h151.9l-41.3 193.2z" fill="#E63946"/>
</svg>
